archive.is-3.svg

<svg xmlns="http://www.w3.org/2000/svg" xmlns:vectornator="http://vectornator.io" xml:space="preserve" stroke-miterlimit="10" style="fill-rule:nonzero;clip-rule:evenodd;stroke-linecap:round;stroke-linejoin:round" viewBox="0 0 1310.4 1310.4"><defs><filter id="c" width="864.904" height="855.803" x="222.748" y="294.987" color-interpolation-filters="sRGB" filterUnits="userSpaceOnUse"><feDropShadow dx="0" dy="3.473" flood-color="#000" flood-opacity=".45" in="SourceGraphic" result="Shadow" stdDeviation="7.389"/></filter><filter id="d" width="942.345" height="1319.71" x="184.028" y="-1.647" color-interpolation-filters="sRGB" filterUnits="userSpaceOnUse"><feDropShadow dx="0" dy="3.007" flood-color="#000" flood-opacity=".333" in="SourceGraphic" result="Shadow" stdDeviation="7.943"/></filter><linearGradient id="b" x1="0" x2="1" y1="0" y2="0" gradientTransform="matrix(-269.273 -775.156 839.897 -269.273 803.121 1032.93)" gradientUnits="userSpaceOnUse"><stop offset=".376" stop-color="#73feec"/><stop offset="1" stop-color="#73fe73"/></linearGradient></defs><clipPath id="a"><path d="M0 0h1310.4v1310.4H0z"/></clipPath><g vectornator:layerName="Layer 1" clip-path="url(#a)"><g vectornator:layerName="Group 7"><path vectornator:layerName="Oval 1" fill="url(#b)" d="M253.221 719.415c0-219.493 179.972-397.428 401.979-397.428s401.98 177.935 401.98 397.428c0 219.494-179.973 397.425-401.98 397.425S253.221 938.909 253.221 719.415"/><g vectornator:layerName="Group 5" vectornator:shadowAngle="1.571" vectornator:shadowColor="#000000" vectornator:shadowOffset="3.473" vectornator:shadowOpacity=".45" vectornator:shadowRadius="14.779" fill="none" stroke="#000" stroke-linecap="butt" stroke-width="24" filter="url(#c)"><path vectornator:layerName="Oval 2" d="M253.221 719.415c0-219.493 179.972-397.428 401.979-397.428s401.98 177.935 401.98 397.428c0 219.494-179.973 397.425-401.98 397.425S253.221 938.909 253.221 719.415Z"/><path vectornator:layerName="Oval 3" d="M483.257 719.415c0-219.493 133.79-397.428 168.109-397.428s168.109 177.935 168.109 397.428c0 219.494-136.12 397.425-168.109 397.425S483.257 938.909 483.257 719.415Z"/><path vectornator:layerName="Curve 1" d="M359.246 458.755s148.502 85.551 295.954 85.223 293.853-86.539 293.853-86.539"/><path vectornator:layerName="Curve 2" d="M359.246 458.755s131.679 85.222 295.954 85.223c164.275 0 293.853-86.539 293.853-86.539"/><path vectornator:layerName="Curve 3" d="M946.269 974.231s-126.794-74.482-294.903-80.947-294.903 80.946-294.903 80.946"/><path vectornator:layerName="Curve 4" d="m253.221 729.425 803.959-.001"/></g></g><g vectornator:layerName="Group 5" fill="none" stroke-linecap="butt" stroke-width="23.004"><path vectornator:layerName="Rectangle 1" stroke="#333" d="M160.263 125.103c0-17.742 14.383-32.124 32.124-32.124h925.623c17.74 0 32.13 14.382 32.13 32.124V259.59c0 17.742-14.39 32.124-32.13 32.124H192.387c-17.741 0-32.124-14.382-32.124-32.124z"/><g vectornator:layerName="Group 1" stroke="#000" opacity=".7"><g vectornator:layerName="Group 2" opacity="1"><path vectornator:layerName="Curve 3" d="m296.8 92.979-.003 198.735" opacity="1"/><path vectornator:layerName="Curve 4" d="M1018.36 92.979v198.735" opacity=".84"/></g><path vectornator:layerName="Curve 2" d="m214.194 159.301 882.016-.004" opacity="1"/></g><path vectornator:layerName="Rectangle 1" stroke="#333" d="M160.263 125.103c0-17.742 14.383-32.124 32.124-32.124h925.623c17.74 0 32.13 14.382 32.13 32.124V259.59c0 17.742-14.39 32.124-32.13 32.124H192.387c-17.741 0-32.124-14.382-32.124-32.124z"/></g><g vectornator:layerName="Group 6" fill="none" stroke="#000"><path vectornator:layerName="Curve 1" stroke-width="23.004" d="M290.542 1220.5s133.286-65.76 363.789-67.39c230.502-1.64 365.529 67.39 365.529 67.39" opacity=".743"/><path vectornator:layerName="Curve 1" vectornator:shadowAngle="1.571" vectornator:shadowColor="#000000" vectornator:shadowOffset="3.007" vectornator:shadowOpacity=".333" vectornator:shadowRadius="15.886" stroke-linecap="butt" stroke-width="24" d="m1094.51 345.001.01 913.839c0 13.45-10.91 24.36-24.37 24.36H240.246c-13.454 0-24.361-10.91-24.361-24.36l.001-912.929s61.34-11.621 60.682-61.998-60.683-53.747-60.683-53.747V51.564c0-13.454 10.907-24.361 24.361-24.361h829.904c13.46 0 24.37 10.907 24.37 24.36v172.173s-64.67 2.064-67.05 60.18 67.04 61.085 67.04 61.085Z" filter="url(#d)"/></g></g></svg>

<svg width="100%" height="100%" viewBox="0 0 1310.4 1310.4" xml:space="preserve" xmlns="http://www.w3.org/2000/svg" xmlns:xlink="http://www.w3.org/1999/xlink">
   <defs>
      <linearGradient gradientTransform="matrix(-269.273 -775.156 839.897 -269.273 803.121 1032.93)" gradientUnits="userSpaceOnUse" id="LG_archive-" x1="0" x2="1" y1="0" y2="0"><stop offset="0.376316" stop-color="#73feec"/><stop offset="1" stop-color="#73fe73"/></linearGradient>
      <filter color-interpolation-filters="sRGB" filterUnits="userSpaceOnUse" height="855.803" id="F_archive-" width="864.904" x="222.748" y="294.987"><feDropShadow dx="-1.27578e-05" dy="3.47319" flood-color="#000" flood-opacity="0.45" in="SourceGraphic" result="Shadow" stdDeviation="7.38928"/></filter>
      <filter color-interpolation-filters="sRGB" filterUnits="userSpaceOnUse" height="1319.71" id="F_archive-2" width="942.345" x="184.028" y="-1.64729"><feDropShadow dx="-1.10453e-05" dy="3.00699" flood-color="#000" flood-opacity="0.333" in="SourceGraphic" result="Shadow" stdDeviation="7.94289"/></filter>
   </defs>
   <g id="archive-1">
   <g>
      <path id="Oval-1" d="M253.221 719.415C253.221 499.922 433.193 321.987 655.2 321.987C877.207 321.987 1057.18 499.922 1057.18 719.415C1057.18 938.909 877.207 1116.84 655.2 1116.84C433.193 1116.84 253.221 938.909 253.221 719.415Z" fill="url(#LG_archive-)" />
   <g filter="url(#F_archive-)" shadowAngle="1.5708" shadowColor="#000" shadowOffset="3.47319" shadowOpacity="0.45" shadowRadius="14.7786">
      <path id="Oval-2" d="M253.221 719.415C253.221 499.922 433.193 321.987 655.2 321.987C877.207 321.987 1057.18 499.922 1057.18 719.415C1057.18 938.909 877.207 1116.84 655.2 1116.84C433.193 1116.84 253.221 938.909 253.221 719.415Z" fill="none" stroke="#000" stroke-linecap="butt" stroke-linejoin="round" stroke-width="24"/>
      <path id="Oval-3" d="M483.257 719.415C483.257 499.922 617.047 321.987 651.366 321.987C685.685 321.987 819.475 499.922 819.475 719.415C819.475 938.909 683.355 1116.84 651.366 1116.84C619.377 1116.84 483.257 938.909 483.257 719.415Z" fill="none" stroke="#000" stroke-linecap="butt" stroke-linejoin="round" stroke-width="24"/>
      <path fill="none" stroke="#000" stroke-linecap="butt" stroke-linejoin="round" stroke-width="24" d="M359.246 458.755C359.246 458.755 507.748 544.306 655.2 543.978C802.652 543.649 949.053 457.439 949.053 457.439"/>
      <path fill="none" stroke="#000" stroke-linecap="butt" stroke-linejoin="round" stroke-width="24" d="M359.246 458.755C359.246 458.755 490.925 543.977 655.2 543.978C819.475 543.978 949.053 457.439 949.053 457.439"/>
      <path fill="none" stroke="#000" stroke-linecap="butt" stroke-linejoin="round" stroke-width="24" d="M946.269 974.231C946.269 974.231 819.475 899.749 651.366 893.284C483.257 886.818 356.463 974.23 356.463 974.23"/>
      <path fill="none" stroke="#000" stroke-linecap="butt" stroke-linejoin="round" stroke-width="24" d="M253.221 729.425L1057.18 729.424"/>
   </g>
</g>
   <g>
      <path fill="none" stroke="#333" stroke-linecap="butt" stroke-linejoin="round" stroke-width="23.0036" d="M160.263 125.103C160.263 107.361 174.646 92.9787 192.387 92.9787L1118.01 92.9787C1135.75 92.9787 1150.14 107.361 1150.14 125.103L1150.14 259.59C1150.14 277.332 1135.75 291.714 1118.01 291.714L192.387 291.714C174.646 291.714 160.263 277.332 160.263 259.59L160.263 125.103Z"/>
   <g opacity="0.7">
   <g>
      <path fill="none" stroke="#000" stroke-linecap="butt" stroke-linejoin="round" stroke-width="23.0036" d="M296.8 92.9787L296.797 291.714"/>
      <path fill="none" opacity="0.839744" stroke="#000" stroke-linecap="butt" stroke-linejoin="round" stroke-width="23.0036" d="M1018.36 92.9787L1018.36 291.714"/>
   </g>
      <path fill="none" stroke="#000" stroke-linecap="butt" stroke-linejoin="round" stroke-width="23.0036" d="M214.194 159.301L1096.21 159.297"/>
   </g>
      <path fill="none" stroke="#333" stroke-linecap="butt" stroke-linejoin="round" stroke-width="23.0036" d="M160.263 125.103C160.263 107.361 174.646 92.9787 192.387 92.9787L1118.01 92.9787C1135.75 92.9787 1150.14 107.361 1150.14 125.103L1150.14 259.59C1150.14 277.332 1135.75 291.714 1118.01 291.714L192.387 291.714C174.646 291.714 160.263 277.332 160.263 259.59L160.263 125.103Z"/>
   </g>
   <g>
      <path fill="none" opacity="0.742546" stroke="#000" stroke-linecap="round" stroke-linejoin="round" stroke-width="23.0036" d="M290.542 1220.5C290.542 1220.5 423.828 1154.74 654.331 1153.11C884.833 1151.47 1019.86 1220.5 1019.86 1220.5"/>
      <path fill="none" filter="url(#F_archive-2)" stroke="#000" stroke-linecap="butt" stroke-linejoin="round" stroke-width="24" shadowAngle="1.5708" shadowColor="#000" shadowOffset="3.00699" shadowOpacity="0.333" shadowRadius="15.8858" d="M1094.51 345.001L1094.52 1258.84C1094.52 1272.29 1083.61 1283.2 1070.15 1283.2L240.246 1283.2C226.792 1283.2 215.885 1272.29 215.885 1258.84L215.886 345.911C215.886 345.911 277.226 334.29 276.568 283.913C275.91 233.536 215.885 230.166 215.885 230.166L215.885 51.5638C215.885 38.1097 226.792 27.2029 240.246 27.2029L1070.15 27.2029C1083.61 27.2029 1094.52 38.1097 1094.52 51.5638L1094.52 223.736C1094.52 223.736 1029.85 225.8 1027.47 283.916C1025.09 342.032 1094.51 345.001 1094.51 345.001Z"/>
   </g>
</g></svg>
